X: 27136
T: Miss McGuinness
R: reel
M: 4/4
K: Gmajor
dGGG dGBd|dega bage|dGGG dGBd|egdB BA A2:
agab g2ag|egdg egdg|agab g2 ag|edgd BAAA|
agab g2ag|egdg egdg|b2 bg abag|edef gage||

